material/.icons/material/cog-clockwise.svg

<svg xmlns="http://www.w3.org/2000/svg" viewBox="0 0 24 24"><path d="M12 3a9 9 0 000 18c2 0 3.92-.66 5.5-1.86l-1.44-1.44A6.995 6.995 0 015 12c0-3.87 3.13-7 7-7s7 3.13 7 7h-3l4 4 4-4h-3a9 9 0 00-9-9M7.71 13.16c-.09.07-.12.19-.07.29l.9 1.55c.06.12.18.12.28.12l1.13-.45c.24.16.49.3.75.42l.18 1.19c.02.11.12.19.22.19h1.8c.1.03.21-.06.23-.17l.18-1.18c.27-.12.53-.27.76-.45l1.12.45c.11.04.23-.01.28-.12l.9-1.5c.05-.12.02-.24-.06-.31l-1-.74c.03-.3.03-.6 0-.9l1-.76c.09-.07.11-.18.06-.29l-.9-1.55a.226.226 0 00-.28-.1l-1.12.45c-.24-.17-.5-.3-.77-.42l-.17-1.19a.244.244 0 00-.23-.19h-1.76c-.1 0-.19.07-.21.17l-.17 1.18c-.26.12-.53.27-.76.45l-1.15-.42a.234.234 0 00-.29.12l-.91 1.5c-.05.12-.02.24.06.31l1 .74c-.02.15-.02.3 0 .45-.01.15-.01.3 0 .45l-1 .74m4.29.31c-.84 0-1.5-.68-1.5-1.5 0-.83.67-1.5 1.5-1.5s1.5.67 1.5 1.5-.67 1.5-1.5 1.5"/></svg>

<?xml version="1.0" encoding="UTF-8"?><!DOCTYPE svg PUBLIC "-//W3C//DTD SVG 1.1//EN" "http://www.w3.org/Graphics/SVG/1.1/DTD/svg11.dtd"><svg xmlns="http://www.w3.org/2000/svg" xmlns:xlink="http://www.w3.org/1999/xlink" version="1.1" id="mdi-cog-clockwise" width="24" height="24" viewBox="0 0 24 24"><path d="M12 3C7.03 3 3 7.03 3 12S7.03 21 12 21C14 21 15.92 20.34 17.5 19.14L16.06 17.7C14.87 18.54 13.45 19 12 19C8.13 19 5 15.87 5 12S8.13 5 12 5 19 8.13 19 12H16L20 16L24 12H21C21 7.03 16.97 3 12 3M7.71 13.16C7.62 13.23 7.59 13.35 7.64 13.45L8.54 15C8.6 15.12 8.72 15.12 8.82 15.12L9.95 14.67C10.19 14.83 10.44 14.97 10.7 15.09L10.88 16.28C10.9 16.39 11 16.47 11.1 16.47H12.9C13 16.5 13.11 16.41 13.13 16.3L13.31 15.12C13.58 15 13.84 14.85 14.07 14.67L15.19 15.12C15.3 15.16 15.42 15.11 15.47 15L16.37 13.5C16.42 13.38 16.39 13.26 16.31 13.19L15.31 12.45C15.34 12.15 15.34 11.85 15.31 11.55L16.31 10.79C16.4 10.72 16.42 10.61 16.37 10.5L15.47 8.95C15.41 8.85 15.3 8.81 15.19 8.85L14.07 9.3C13.83 9.13 13.57 9 13.3 8.88L13.13 7.69C13.11 7.58 13 7.5 12.9 7.5H11.14C11.04 7.5 10.95 7.57 10.93 7.67L10.76 8.85C10.5 8.97 10.23 9.12 10 9.3L8.85 8.88C8.74 8.84 8.61 8.89 8.56 9L7.65 10.5C7.6 10.62 7.63 10.74 7.71 10.81L8.71 11.55C8.69 11.7 8.69 11.85 8.71 12C8.7 12.15 8.7 12.3 8.71 12.45L7.71 13.19M12 13.5H12C11.16 13.5 10.5 12.82 10.5 12C10.5 11.17 11.17 10.5 12 10.5S13.5 11.17 13.5 12 12.83 13.5 12 13.5" /></svg>
